X: 28
T: Rolet / La tricot\'ee / Maistre Pi\`ere
N: Derived from Ano3034-Rolet__La_tricotee__Maistre_Piere--Escorial_B.krn
C: Anonymous
%%abc-version 2.0
%%abcx-abcm2ps-target-version 5.9.1 (29 Sep 2008)
%%abc-creator hum2abc beta
%%abcx-conversion-date 2019/02/16 20:18:27
%%abc-edited-by Jesse Rodin
%%abc-edited-by Chris Gage 03-06-2015
%%abcx-initial-encoding-date 2015/03/13/
%%humdrum-veritas 500291866
%%humdrum-veritas-data 1085941905
%%linebreak <none>
%%barnumbers 0
L: 1/4
M: 4/2
Q: 1/2=120
V: 1 clef=treble
V: 2 clef=treble-8
V: 3 clef=bass
K: F
[V:1] F4G4 | 
[V:2] f4e2e2 | 
[V:3] z8 | 
[V:1] A2c4B2 | 
[V:2] f3ec2d2 | 
[V:3] z8 | 
[V:1] A2F2G2B2 | 
[V:2] f2f2e2e2 | 
[V:3] z8 | 
[V:1] A2GFE4 | 
[V:2] f3ec4 | 
[V:3] z8 | 
[V:1] A2A2A2A2 | 
[V:2] F8 | 
[V:3] C2C2C3B, | 
[V:1] A2F4E2 | 
[V:2] c2c4B2 | 
[V:3] A,4G,4 | 
[V:1] F3EC4 | 
[V:2] c4z4 | 
[V:3] F,8 | 
[V:1] z4G4 | 
[V:2] f2f2e2e2 | 
[V:3] D,4C,4 | 
[V:1] F4E2F2 | 
[V:2] d4c2d2 | 
[V:3] D,4A,2F,2 | 
[V:1] G2B3AA2- | 
[V:2] e2d2d2c2 | 
[V:3] E,2G,4A,2 | 
[V:1] A2G2A4- | 
[V:2] B4A4 | 
[V:3] E,4E4 | 
[V:1] A2c4cB | 
[V:2] F4z4 | 
[V:3] A,4C2C2 | 
[V:1] A2G2c4 | 
[V:2] F2G2A2c2 | 
[V:3] C2B,2A,4 | 
[V:1] B4A4 | 
[V:2] d2B2c4- | 
[V:3] G,4F,4- | 
[V:1] z4E4 | 
[V:2] c4c4 | 
[V:3] F,4C,2E,2 | 
[V:1] F4z2G2 | 
[V:2] d4e4 | 
[V:3] D,4C,4- | 
[V:1] G2G2A4 | 
[V:2] z4c4 | 
[V:3] C,4F,4- | 
[V:1] c4c3B | 
[V:2] c2c2c2c2 | 
[V:3] F,4C,4- | 
[V:1] G2c4c2 | 
[V:2] c2c2A2B2 | 
[V:3] C,4F,4 | 
[V:1] A2F2G2FG | 
[V:2] c2d2e2e2 | 
[V:3] A,4G,4 | 
[V:1] A6GF | 
[V:2] f3ec4 | 
[V:3] F,8 | 
[V:1] E4z4 | 
[V:2] z4A2B2 | 
[V:3] C,4F,2G,2 | 
[V:1] F2A4G2 | 
[V:2] c4d4 | 
[V:3] A,2A,2B,2B,2 | 
[V:1] A4E2F2- | 
[V:2] e2c2z4 | 
[V:3] A,2A,2G,2G,2 | 
[V:1] F2G2A2B2 | 
[V:2] A2c4G2 | 
[V:3] D,2C,2F,2G,2 | 
[V:1] c4B2G2- | 
[V:2] F2A2G2E2 | 
[V:3] A,2A,2B,2B,2 | 
[V:1] GFF3EED | 
[V:2] F2c4B2 | 
[V:3] A,2A,2G,2G,2 | 
[V:1] F8 |]  
[V:2] c8 |]  
[V:3] F,8 |]  



